!!!COM: Mozart
!!!OTL: 9 Variationen uber ein Minuett von Duport
!!!Variation: Variation 1 c
**function	**harm	**kern	**kern
*	*	*clefG2	*clefG2
*	*	*k[f#c#]	*k[f#c#]
*M3/4	*M3/4	*M3/4	*M3/4
*D:	*D:	*D:	*D
=33	=33	=33	=33
*	*	*^	*
2D	2V	8r	2.A	16eeLL
.	.	.	.	16cc#
.	.	(8e	.	16a
.	.	.	.	16cc#JJ
.	.	8c#L	.	16eeLL
.	.	.	.	16cc#
.	.	8eJ	.	16gg
.	.	.	.	16eeJJ
4D	4Ic	8dL	.	16ff#LL
.	.	.	.	16dd
.	.	8f#J)	.	16aa
.	.	.	.	16ff#JJ
=34	=34	=34	=34	=34
2.D	2.V	4e	4A	16ggLL
.	.	.	.	16ee
.	.	.	.	16ccc#
.	.	.	.	16ggJJ
.	.	4r	4r	16eeeLL
.	.	.	.	16ddd
.	.	.	.	16ccc#
.	.	.	.	16bbJJ
.	.	4r	4r	16aaLL
.	.	.	.	16gg
.	.	.	.	16ff#
.	.	.	.	16eeJJ
=35	=35	=35	=35	=35
2T	2I	8r	2.d	16ff#LL
.	.	.	.	16dd
.	.	(8f#	.	16a
.	.	.	.	16ddJJ
.	.	8aL	.	16ff#LL
.	.	.	.	16dd
.	.	8f#J	.	16aa
.	.	.	.	16ff#JJ
4T	4ii7d	8eL	.	16ggLL
.	.	.	.	16ee
.	.	8gJ)	.	16bb
.	.	.	.	16ggJJ
=36	=36	=36	=36	=36
2.T	2.I	4f#	4d	16aaLL
.	.	.	.	16ff#
.	.	.	.	16dd
.	.	.	.	16cc#JJ
.	.	4r	4r	16eeLL
.	.	.	.	16dd
.	.	.	.	16ff#
.	.	.	.	16eeJJ
.	.	4r	4r	16ggLL
.	.	.	.	16ff#
.	.	.	.	16aa
.	.	.	.	16ggJJ
=37	=37	=37	=37	=37
2T	2I	8r	2.d	16bbLL
.	.	.	.	16aa
.	.	(8f#	.	16gg
.	.	.	.	16ff#JJ
.	.	8aL	.	16eeLL
.	.	.	.	16dd
.	.	8f#J	.	16cc#
.	.	.	.	16ddJJ
4T	4IVc	8gL	.	16bbLL
.	.	.	.	16ccc#
.	.	8bJ)	.	16ddd
.	.	.	.	16bbJJ
=38	=38	=38	=38	=38
2T	2I	8r	2.d	16gg#LL
.	.	.	.	16aa
.	.	(8f#	.	16bb
.	.	.	.	16aaJJ
.	.	8aL	.	16ggLL
.	.	.	.	16ff#
.	.	8f#J	.	16ee
.	.	.	.	16ddJJ
4T	4IVc	8gL	.	16bbLL
.	.	.	.	16ccc#
.	.	8bJ	.	16ddd
.	.	.	.	16bbJJ
=39	=39	=39	=39	=39
4T	4I	8f#L	4d	16bbLL
.	.	.	.	16aa
.	.	8aJ	.	16ddd
.	.	.	.	16aaJJ
4T	4V7b	8eL	4c#	16aaLL
.	.	.	.	16gg
.	.	8aJ	.	16eee
.	.	.	.	16ggJJ
4T	4I	8f#L	4d	16ggLL
.	.	.	.	16ff#
.	.	8aJ)	.	16ddd
.	.	.	.	16ff#JJ
=40	=40	=40	=40	=40
2.D	2.V	4c#	4A	16ff#LL
.	.	.	.	16ee
.	.	.	.	16dd#
.	.	.	.	16eeJJ
*	*	*v	*v	*
.	.	4r	16ddLL
.	.	.	16cc#
.	.	.	16b#
.	.	.	16cc#JJ
.	.	4r	16bLL
.	.	.	16a
.	.	.	16g#
.	.	.	16aJJ
*-	*-	*-	*-
